!!!!SEGMENT: pl-wtm--r-2030--001_smietanski-emil-wladyslaw--polka-capricio.krn
!!!cenid: 18xx:2008
!!!COM: Śmietański, Emil Władysław
!!!COM-rismID: pe50041781
!!!CDT: 1845-1886
!!!CNT: Polish
!!!OTL: Polka - Capricio
!!!PDT: 1869
!!!AGN: Secular
!!!OMD: Alegretto._
!!!SMS-siglum: PL-Wtm
!!!SMS-shelfmark: R 2030
!!!SMS-shelfwork: 001 W
!!!SMS-variant:
!!!SMS-altvar:
!!!NIFC-rismSourceID: 1001112548
!!!NIFC-rismChildID: 1001112550
!!!NIFC-islandoraID: pl-wtm:29543
!!!URL-pdf-islandora: https://repozytorium.nifc.pl/islandora/object/pl-wtm%3A29543/datastream/PDF/view
!!!URL-scan: https://polish.musicsources.pl/pl/lokalizacje/galeria/rekopisy/6522 @EN{Scan on Polish Music Sources Website} @PL{Skany w portalu Dziedzictwo Muzyki Polskiej w otwartym dostępie}
!!!IIIF:
!!!ONB-nifc: UWAGA: w zbiorze 1. Polka-Capricio i 2. Mazurka
!!!AIN: 1 forte
!!!key:
**kern	**fing	**kern	**fing	**dynam
*part1	*	*part1	*	*part1
*staff2	*	*staff1	*	*
*Iforte	*	*Iempty	*	*
*I"Fortepian	*	*	*	*
*clefF4	*	*clefG2	*	*
*k[b-e-a-]	*	*k[b-e-a-]	*	*
*E-:	*	*E-:	*	*
*M2/4	*	*M2/4	*	*
=1	=1	=1	=1	=1
*>A	*	*>A	*	*
!	!	!LO:TX:a:i:t=Polka - Capricio (Polka-Caprice.)	!	!LO:DY:t=p.
8EE-\L	.	8ee-\L 8g\	.	p
8e-\ 8E-\	.	8ee-\ 8g\	.	.
8e-\ 8B-\	.	8.dd\ 8.g\	.	.
8e-\J 8G\	.	.	.	.
.	.	16cc\Jk 16g\	.	.
=2	=2	=2	=2	=2
8BB-\L	.	8bn\L 8a-\	.	.
8d\ 8F\	.	8cc\ 8a-\	.	.
8d\ 8c\	.	8.dd\ 8.a-\	.	.
8d\J 8A-\	.	.	.	.
.	.	16cc\Jk 16a-\	.	.
=3	=3	=3	=3	=3
8BB-\L	.	8bn\L 8a-\	.	.
8d\ 8F\	.	8cc\ 8a-\	.	.
8d\ 8c\	.	8.dd\ 8.a-\	.	.
8d\J 8A-\	.	.	.	.
.	.	16cc\Jk 16a-\	.	.
=4	=4	=4	=4	=4
8EE-\L	.	8an\L 8g\	.	.
8e-\ 8E-\	.	8b-\ 8g\	.	.
8e-\ 8B-\	.	8.ee-\ 8.cc\ 8.g\	.	.
8e-\J 8G\	.	.	.	.
.	.	16b-\Jk	.	.
=5	=5	=5	=5	=5
8EE-\L	.	8ee-\L 8g\	.	.
8e-\ 8E-\	.	8ee-\ 8g\	.	.
8e-\ 8B-\	.	8.dd\ 8.g\	.	.
8e-\J 8G\	.	.	.	.
.	.	16cc\Jk 16g\	.	.
=6	=6	=6	=6	=6
8BB-\L	.	8bn\L 8a-\	.	.
8d\ 8F\	.	8cc\ 8a-\	.	.
8d\ 8c\	.	8.dd\ 8.a-\	.	.
8d\J 8A-\	.	.	.	.
.	.	16cc\Jk 16a-\	.	.
=7	=7	=7	=7	=7
8BB-\L	.	8bn\L 8a-\	.	.
8d\ 8F\	.	8cc\ 8a-\	.	.
8d\ 8c\	.	8.ff\ 8.dd\ 8.a-\	.	.
8d\J 8A-\	.	.	.	.
.	.	16cc\Jk	.	.
=8	=8	=8	=8	=8
8EE-\L	.	8an\L 8g\	.	.
8e-\ 8E-\	.	8b-\ 8g\	.	.
8e-\ 8B-\	.	8.ee-\ 8.cc\ 8.g\	.	.
8e-\J 8G\	.	.	.	.
.	.	16b-\Jk	.	.
!!LO:LB:g=original
=9	=9	=9	=9	=9
!LO:TX:t=P:problem=mixed beam	!	!	!	!
8DD/L	.	8gg\L 8b-\ 8g\	.	.
8d\ 8D\	.	8gg\ 8b-\	.	.
8d\ 8B-\	.	8.ff\ 8.an\	.	.
8d\J 8G\	.	.	.	.
.	.	16ee-\Jk 16g\	.	.
=10	=10	=10	=10	=10
8DD\L	.	8cc#X\L 8ccn\ 8f#X\	.	.
8d\ 8D\	.	8dd\ 8ccn\ 8f#\	.	.
.	.	16qff/	.	.
8.e-\ 8.c\	.	8.ee-\ 8.cc\ 8.f#\	.	.
16d\Jk	.	16dd\Jk	.	.
=11	=11	=11	=11	=11
8DD\L	.	8cc#X\L 8ccn\ 8f#X\	.	.
8D\	.	8dd\ 8ccn\ 8f#\	.	.
8.an\ 8.e-\ 8.c\	.	8.aan\ 8.ee-\ 8.cc\	.	.
16d\Jk	.	16dd\Jk	.	.
=12	=12	=12	=12	=12
8GG\L	.	8cc#X\L 8b-\ 8g\	.	.
8D\	.	8dd\ 8b-\ 8g\	.	.
8.g\ 8.e-\ 8.B-\	.	8.gg\ 8.ee-\ 8.b-\	.	.
16d\Jk	.	16dd\Jk	.	.
=13	=13	=13	=13	=13
8C\L 8CC\	.	8gg\L 8ee-\ 8g\	.	.
8e-\ 8G\	.	8gg\ 8ee-\	.	.
.	.	32qff\LLL 32qdd/	.	.
.	.	32qgg/JJJ	.	.
8g\ 8c\	.	8ff\ 8dd\	.	.
8an\J 8e-\	.	8ee-\J 8cc\	.	.
=14	=14	=14	=14	=14
8D\L	.	16dd\LL 16b-\	.	.
.	.	16ee-\	.	.
*clefG2	*	*	*	*
8g\ 8B-\	.	16dd\	.	.
.	.	16eee-\JJ	.	.
8b-\ 8d\	.	16ddd\LL	.	.
*	*	*8va	*	*
.	.	16eeee-\	.	.
8dd\J 8g\	.	16dddd\	.	.
.	.	16eeee-\JJ	.	.
*clefF4	*	*	*	*
=15	=15	=15	=15	=15
*	*	*Xtuplet	*	*
!	!	!LO:TX:t=P:problem=mixed beam	!	!
8D\L	.	40dddd\LLL	.	.
.	.	40aaaa-\	.	.
.	.	40gggg#X\	.	.
.	.	40ggggn\	.	.
.	.	40ffff#X\	.	.
*clefG2	*	*	*	*
8f#X/J 8c/	.	40ffffn\	.	.
.	.	40eeeen\	.	.
.	.	40eeee-X\	.	.
.	.	40dddd\	.	.
.	.	40cccc#X\	.	.
8dd/L 8d/	.	40ccccn\	.	.
.	.	40bbbn\	.	.
.	.	40bbb-X\	.	.
*	*	*X8va	*	*
!!LO:LB:g=original
.	.	40aaan\	.	.
.	.	40ggg#X\	.	.
8f#X/J 8c/	.	40gggn\	.	.
.	.	40fff#X\	.	.
.	.	40fffn\	.	.
.	.	40eeen\	.	.
.	.	40eee-X\JJJ	.	.
*clefF4	*	*	*	*
=16	=16	=16	=16	=16
8GG\L	.	32ddd\LLL	.	.
.	.	32ggg\	.	.
.	.	32eee-\	.	.
.	.	32ddd\	.	.
8g\J 8d\ 8B-\	.	32bb-\	.	.
.	.	32gg\	.	.
.	.	32ff\	.	.
.	.	32ee-\JJJ	.	.
8BB-\L	.	32dd\LLL	.	.
.	.	32ccc\	.	.
.	.	32bb-\	.	.
.	.	32aa-\	.	.
8d\J 8A-\	.	32dd\	.	.
.	.	32b-\	.	.
.	.	32a-\	.	.
.	.	32d\JJJ	.	.
=17	=17	=17	=17	=17
8EE-\L	.	8ee-\L 8g\ 8e-\	.	.
8e-\ 8E-\	.	8ee-\ 8g\	.	.
8e-\ 8B-\	.	8.dd\ 8.g\	.	.
8e-\J 8G\	.	.	.	.
.	.	16cc\Jk 16g\	.	.
=18	=18	=18	=18	=18
8BB-\L	.	8bn\L 8a-\	.	.
8d\ 8F\	.	8cc\ 8a-\	.	.
8d\ 8c\	.	8.dd\ 8.a-\	.	.
8d\J 8A-\	.	.	.	.
.	.	16cc\Jk 16a-\	.	.
=19	=19	=19	=19	=19
8BB-\L	.	8bn\L 8a-\	.	.
8d\ 8F\	.	8cc\ 8a-\	.	.
8d\ 8c\	.	8.dd\ 8.a-\	.	.
8d\J 8A-\	.	.	.	.
.	.	16cc\Jk 16a-\	.	.
=20	=20	=20	=20	=20
8EE-\L	.	8an\L 8g\	.	.
8e-\ 8E-\	.	8b-\ 8g\	.	.
8e-\ 8B-\	.	8.ee-\ 8.cc\ 8.g\	.	.
8e-\J 8G\	.	.	.	.
.	.	16b-\Jk	.	.
=21	=21	=21	=21	=21
8EE-\L	.	8ee-\L 8g\	.	.
8e-\ 8E-\	.	8ee-\ 8e-\	.	.
8e-\ 8B-\	.	8.dd\ 8.g\	.	.
8e-\J 8G\	.	.	.	.
.	.	16dd-X\Jk 16g\	.	.
=22	=22	=22	=22	=22
8AA-\L	.	8bn\L 8a-\	.	.
8e-\ 8A-\	.	8cc\ 8a-\	.	.
.	.	16qee-/	.	.
8e-\ 8c\	.	8.dd\ 8.a-\	.	.
8AAn\J	.	.	.	.
.	.	16cc\Jk 16f#X\	.	.
!!LO:LB:g=original
=23	=23	=23	=23	=23
8BB-\L	.	8an\L 8g\	.	.
8e-\ 8B-\	.	8b-\ 8g\	.	.
8a-\ 8d\	.	8.aa-\ 8.cc\	.	.
8BB-\J	.	.	.	.
.	.	16dd\Jk 16a\	.	.
=24	=24	=24	=24	=24
8C\L	.	8ee-\L 8g\	.	.
8e-\ 8G\	.	8gg\ 8ee-\	.	.
8g\ 8c\	.	8ccc\ 8ee-\	.	.
*clefG2	*	*	*	*
8cc\J 8e-\	.	8eee-\J 8gg\	.	.
*clefF4	*	*	*	*
=25	=25	=25	=25	=25
8AAn\L	.	8ee-\L 8f#X\	.	.
!LO:TX:t=P:problem=wykreślone F# i e	!	!	!	!
8c\ 8AnX\	.	8ee-\ 8f#\	.	.
!LO:TX:t=P:problem=po nucie wykreślone 8c 8e	!	!	!	!
8d\ 8A\	.	8.dd\ 8.f#\	.	.
8e-\J 8An\	.	.	.	.
.	.	16cc\Jk 16f#\	.	.
=26	=26	=26	=26	=26
8BB-\L	.	8an\L 8g\	.	.
8e-\ 8G\	.	8b-\ 8g\	.	.
.	.	16qdd/	.	.
8e-\ 8B-\	.	8.cc\ 8.g\	.	.
8e-\J 8G\	.	.	.	.
.	.	16b-\Jk 16g\	.	.
=27	=27	=27	=27	=27
8BB-\L	.	8an\L 8a-X\	.	.
!LO:TX:t=P:problem=wykreślone A	!	!	!	!
8d\ 8F\	.	8b-\ 8a-X\	.	.
!LO:TX:t=P:problem=wykreślone a	!	!	!	!
8g\ 8B-\	.	8.aa-\ 8.cc\	.	.
!LO:TX:t=P:problem=obydwie nuty przekreślone	!	!	!	!
8d\J 8A-\	.	.	.	.
!	!	!LO:TX:t=P:problem=znak "latarni" na kresce taktowej	!	!
!	!	!LO:TX:t=[segno]:	!	!
.	.	16dd\Jk 16a-\	.	.
=28	=28	=28	=28	=28
*>B	*	*>B	*	*
4e-\ 4G\ 4E-\	.	8ee-\L 8g\	.	.
.	.	8eee-\J 8gg\	.	.
!LO:TX:t=P:problem=mixed beam	!	!	!	!
8E-\L	.	4r	.	.
8EE-/J	.	.	.	.
=29!|:	=29!|:	=29!|:	=29!|:	=29!|:
*>C	*	*>C	*	*
8C\L 8AA-\	.	8A-</L	.	ff
!	!	!LO:TX:b:i:t=con brio	!	!
16C\L 16AA-\	.	8A-</J	.	.
16C\JJ 16AA-\	.	.	.	.
16C\LL 16AA-\	.	16G</LL	.	.
16C\J 16AA-\	.	16A-</J	.	.
8C\J 8AA-\	.	8E-</J	.	.
!!LO:LB:g=original
=30	=30	=30	=30	=30
8AA-\L 8DD-X\	.	8A-</L 8F-X</	.	.
16D-X\L 16AA-\	.	8A-</J	.	.
16D-\JJ 16AA-\	.	.	.	.
16D-\LL 16AA-\	.	16G</LL	.	.
16D-\J 16AA-\	.	16A-</J	.	.
8D-\J 8AA-\	.	8F-</J	.	.
=31	=31	=31	=31	=31
8EE-\L	.	16Dn</LL	.	.
.	.	16E-</J	.	.
8C\J 8AA-\	.	8c</J 8A-</	.	.
8EE-\L	.	16D</LL	.	.
.	.	16E-</J	.	.
8C\J 8AA-\	.	8e-</J 8A-</	.	.
=32	=32	=32	=32	=32
8EE-\	.	16D</LL	.	.
.	.	16E-</	.	.
!	!	!LO:TX:a:i:t=m.s.	!	!
8e->/L 8d-X>/	.	16G</	.	.
.	.	16F</JJ	.	.
8e->/ 8d->/ 8G>/	.	16E-</LL	.	.
.	.	16D-X</	.	.
8e->/J 8d->/ 8G>/	.	16C</	.	.
.	.	16BB-</JJ	.	.
=33	=33	=33	=33	=33
8AA-\L	.	8A-</L	.	.
16C\L 16AA-\	.	8A-</J	.	.
16C\JJ 16AA-\	.	.	.	.
16C\LL 16AA-\	.	16G</LL	.	.
16C\J 16AA-\	.	16A-</J	.	.
8C\J 8AA-\	.	8E-</J	.	.
=34	=34	=34	=34	=34
8AA-\L 8DD-X\	.	8A-</L 8F-X</	.	.
16D-X\L 16AA-\	.	8A-</J	.	.
16D-\JJ 16AA-\	.	.	.	.
16D-\LL 16AA-\	.	16G</LL	.	.
16D-\J 16AA-\	.	16A-</J	.	.
8D-\J 8AA-\	.	8F-</J	.	.
=35	=35	=35	=35	=35
!LO:TX:t=I	!	!	!	!
*>C1	*	*>C1	*	*
8GG\L	.	16D#X</LL	.	.
.	.	16En</J	.	.
8C\J	.	8c</J 8G</	.	.
8GG\L	.	16D#</LL	.	.
.	.	16E</J	.	.
8G\J 8En\ 8C\	.	8en</J 8c</	.	.
=36	=36	=36	=36	=36
4F\ 4D\ 4GG\	.	4Bn<\ 4G<tt<\	.	.
8En\ 8C\	.	8c</ 8G</	.	.
8r	.	8r<	.	.
!!LO:LB:g=original
=37:|!	=37:|!	=37:|!	=37:|!	=37:|!
!LO:TX:t=II	!	!	!	!
*>C2	*	*>C2	*	*
8EE-\L	.	16D</LL	.	.
.	.	16E-</J	.	.
8C\J 8AA-\	.	8c</J 8A-</	.	.
8EE--\L	.	16E-</LL	.	.
.	.	16F-X</J	.	.
8F\J 8E--\	.	8f-X</J 8c-X</ 8A-</	.	.
=38	=38	=38	=38	=38
*	*	*^	*	*
!LO:SIC:v:n=2:s=4EE-	!	!	!	!	!
4D-X\ 4EEn\	.	4B-</ 4G<tt</	4e-\	.	.
!	!	!LO:TX:i:a:t=Da Capo alsegno\nOX e poi segue	!	!	!
8C\ 8AA-\	.	8A-</	4ryy	.	.
8r	.	8r<	.	.	.
*	*	*v	*v	*	*
=39	=39	=39	=39	=39
*>D	*	*>D	*	*
!	!	!LO:TX:t=P:problem=zamiast kreski taktowej akolada	!	!
8EE-\L	.	8ee-\L 8g\	.	.
!	!	!LO:TX:b:i:t=rallent.	!	!
8e-\	.	8ee-\	.	.
8f\ 8Bn\ 8G\	.	8dd\ 8g\	.	.
8GG\J	.	8gg\J	.	.
=40||	=40||	=40||	=40||	=40||
!LO:TX:t=P:problem=mixed beam	!	!	!	!
8C\L	.	16cc\LL	.	.
.	.	16dd\	.	.
*clefG2	*	*	*	*
8e-/ 8G/	5 2	16cc\	.	.
.	.	16ddd\JJ	.	.
*	*	*8va	*	*
8g/ 8c/	.	16ccc\LL	.	.
.	.	16dddd\JJ	.	.
*	*	*X8va	*	*
8cc/J 8e-/	.	16ccc\	.	.
.	.	16r	.	.
*clefF4	*	*	*	*
!!LO:LB:g=original
=41	=41	=41	=41	=41
!	!	!LO:TX:t=P:problem=mixed beam	!	!
8C\L	.	16cc\LL	.	.
.	.	16dd\	.	.
*clefG2	*below	*	*	*
8f/ 8A-/	5 2	16cc\	.	.
.	.	16ddd\JJ	.	.
*	*above	*8va	*	*
8a-/ 8c/	.	16ccc\LL	.	.
.	.	16dddd\JJ	.	.
*	*	*X8va	*	*
8cc/J 8f/	.	16ccc\	.	.
.	.	16r	.	.
*clefF4	*	*	*	*
=42	=42	=42	=42	=42
8C\L	.	24ccc\LL	.	.
.	.	24ggg\	.	.
.	.	24fff#X\JJ	.	.
8e-\ 8G\	5 2	24fffn\LL	.	.
.	.	24eeen\	1	.
.	.	24eee-X\JJ	4	.
8g\ 8c\	.	24ddd\LL	.	.
.	.	24ccc#X\	.	.
.	.	24cccn\JJ	.	.
8e-\J 8G\	.	32bbn\LLL	3	.
.	.	32bb-X\	.	.
.	.	32aan\	.	.
.	.	32aa-X\JJJ	.	.
=43	=43	=43	=43	=43
8GG\L	.	24gg\LL	.	.
.	.	24ddd\	.	.
.	.	24ccc#X\JJ	.	.
8Bn\ 8F\	5 2	24cccn\LL	.	.
.	.	24bbn\	1	.
.	.	24bb-X\JJ	4	.
8f\ 8G\	.	32aan\LLL	.	.
.	.	32aa-X\	.	.
.	.	32gg\	.	.
.	.	32ff#X\JJJ	.	.
8B\J 8F\	.	32ffn\LLL	.	.
.	.	32een\	.	.
.	.	32ee-X\	.	.
.	.	32dd\JJJ	.	.
=44	=44	=44	=44	=44
8C\L	.	16cc\LL	.	.
.	.	16dd\	.	.
*clefG2	*	*	*	*
8e-\J 8G\	.	16cc\	.	.
.	.	16ddd\JJ	.	.
*	*	*8va	*	*
8g\L 8c\	.	16ccc\LL	.	.
.	.	16dddd\	.	.
8cc\J 8e-\	.	16cccc\JJ	.	.
*	*	*X8va	*	*
.	.	16r	.	.
*clefF4	*	*	*	*
=45	=45	=45	=45	=45
8C\L	.	16cc\LL	.	.
.	.	16dd\	.	.
*clefG2	*	*	*	*
8f\J 8A-\	.	16cc\	.	.
.	.	16ddd\JJ	.	.
*	*	*8va	*	*
8a-\L 8c\	.	16ccc\LL	.	.
.	.	16dddd\	.	.
8cc\J 8f\	.	16cccc\JJ	.	.
*	*	*X8va	*	*
.	.	16r	.	.
!!LO:PB:g=original
=46	=46	=46	=46	=46
*clefF4	*	*	*	*
8C\L	.	24ccc\LL	.	.
.	.	24ggg\	.	.
.	.	24fff#X\JJ	.	.
8e-\ 8G\	.	24fffn\LL	.	.
.	.	24eeen\	.	.
.	.	24eee-X\JJ	.	.
8g\ 8c\	.	24ddd\LL	.	.
.	.	24ccc#X\	.	.
.	.	24cccn\JJ	.	.
8e-\J 8G\	.	32bbn\LLL	.	.
.	.	32bb-X\	.	.
.	.	32aan'\	.	.
.	.	32aa-X\JJJ	.	.
=47	=47	=47	=47	=47
8GG\L	.	32gg\LLL	.	.
.	.	32ddd\	.	.
.	.	32aa-\	.	.
.	.	32gg\	.	.
8f\J 8Bn\ 8F\	.	32ee-\	.	.
.	.	32dd\	.	.
.	.	32a-\	.	.
.	.	32g\JJJ	.	.
8c\L 8E-\ 8C\	.	8cc\ 8e-\	.	.
8CC\J	.	8r	.	.
=48!|:	=48!|:	=48!|:	=48!|:	=48!|:
*>E	*	*>E	*	*
16CC/LL	.	8r	.	.
16DD/	.	.	.	.
16CC/	.	8cc/ 8a-/ 8f/	.	.
16D/JJ	.	.	.	.
16C/LL	.	16bn/LL 16a-/ 16f/	.	.
16d/	.	16cc/	.	.
16c/JJ	.	16dd/	.	.
16rd	.	16cc/JJ	.	.
=49	=49	=49	=49	=49
16CC/LL	.	8r	.	.
16DD/	.	.	.	.
16CC/	.	8cc/ 8g/ 8e-/	.	.
16D/JJ	.	.	.	.
16C/LL	.	16bn/LL 16g/ 16e-/	.	.
16d/	.	16cc/	.	.
16c/JJ	.	16dd/	.	.
16rd	.	16cc/JJ	.	.
=50	=50	=50	=50	=50
8C\L	.	32ddd\LLL	.	.
.	.	32aaan\	.	.
.	.	32fff#X\	.	.
.	.	32eee-\	.	.
8f#X\J 8d\ 8An\	.	32ddd\	1	.
.	.	32bb-\	4	.
.	.	32aan\	.	.
.	.	32ff#X\JJJ	.	.
8C\L	.	32gg\LLL	1	.
.	.	32ddd\	5	.
.	.	32bbn\	3	.
.	.	32aa-X\	2	.
8f#\J 8Bn\ 8G\	.	32gg\	1	.
.	.	32ee-\	4	.
.	.	32dd\	3	.
.	.	32bn\JJJ	2	.
!!LO:LB:g=original
=51	=51	=51	=51	=51
8C\L	.	32cc\LLL	1	.
.	.	32gg\	5	.
.	.	32ee-\	.	.
.	.	32dd\	.	.
8e-\J 8c\ 8G\	.	32cc\	1	.
.	.	32a-\	4	.
.	.	32g\	.	.
.	.	32e-\JJJ	.	.
32c/LLL	1	4r	.	.
32A-/	2	.	.	.
32G/	3	.	.	.
32E-/	5	.	.	.
32C/	1	.	.	.
32AA-/	.	.	.	.
32GG/	.	.	.	.
32EE-/JJJ	.	.	.	.
=52:|!	=52:|!	=52:|!	=52:|!	=52:|!
*>F	*	*>F	*	*
8AA-\L	.	8r	.	.
8c\J 8A-\	.	8cc\L 8f\	.	.
16Bn\LL 16A-\	.	(8ff\ 8f\	.	.
16c\	.	.	.	.
16d\	.	8cc'\J)	.	.
16c\JJ	.	.	.	.
=53	=53	=53	=53	=53
8C\L	.	8r	.	.
8c\J 8G\	.	8cc\ 8e-\	.	.
16Bn\LL 16G\	.	(8ee-\L 8e-\	.	.
16c\	.	.	.	.
16d\	.	8cc'\J)	.	.
16c\JJ	.	.	.	.
=54	=54	=54	=54	=54
8GG\L	.	8r	.	.
8c\ 8A-\ 8F\	.	8cc\ 8a-\ 8f\	.	.
8d\ 8c\ 8A-\	.	16bn\LL 16a-\ 16f\	.	.
.	.	16cc\	.	.
8c\J 8A-\ 8F\	.	16dd\	.	.
.	.	16cc\JJ	.	.
=55	=55	=55	=55	=55
8CC\L	.	8r	.	.
!LO:TX:t=P:problem=wykreślone c	!	!	!	!
8G\ 8E-\	.	8cc\ 8g\ 8e-\	.	.
8c\ 8G\	.	16ee-\LL 16g\ 16e-\	.	.
.	.	16cc\	.	.
8G\J 8E-\	.	16dd\	.	.
.	.	16cc\JJ	.	.
=56	=56	=56	=56	=56
8AA-\L	.	8r	.	.
8c\J 8A-\	.	8cc\ 8f\	.	.
16Bn\LL 16A-\	.	(8ff\L 8f\	.	.
16c\	.	.	.	.
16d\	.	8cc'\J)	.	.
16c\JJ	.	.	.	.
!!LO:LB:g=original
=57	=57	=57	=57	=57
8C\L	.	8r	.	.
8c\J 8G\	.	8cc\ 8e-\	.	.
16Bn\LL 16G\	.	(8ee-\L 8e-\	.	.
16c\	.	.	.	.
16d\	.	8cc'\J)	.	.
16c\JJ	.	.	.	.
=58	=58	=58	=58	=58
8GG\L	.	8r	.	.
8c\ 8A-\ 8F\	.	8cc\ 8a-\ 8f\	.	.
8d\ 8c\ 8A-\	.	16bn\LL 16a-\ 16f\	.	.
!	!	!LO:TX:a:i:t=lungo.	!	!
.	.	16cc\	.	.
8c\J 8A-\ 8F\	.	16dd\	.	.
.	.	16cc\JJ	.	.
=59	=59	=59	=59	=59
*2\right	*	*2\right	*	*
!	!	!LO:TX:t=P:problem=2\right&colon; global	!	!
2c\ 2E-;\	.	2ccTT;\	.	.
1ryy	.	40bn\LLL	.	.
.	.	40cc\	.	.
.	.	40ee-\	.	.
.	.	40ff#X\	.	.
.	.	40gg\JJJ	.	.
.	.	40dd\LLL	.	.
.	.	40ee-\	.	.
.	.	40ff#\	.	.
.	.	40gg\	.	.
.	.	40ccc\JJJ	.	.
.	.	40ff#\LLL	2	.
.	.	40gg\	4	.
.	.	40bbn\	.	.
.	.	40ccc\	.	.
.	.	40eee-\JJJ	.	.
*	*	*8va	*	*
.	.	40bbn\LLL	.	.
.	.	40ccc\	.	.
.	.	40eee-\	.	.
.	.	40fff#X\	.	.
.	.	40ggg\JJJ	.	.
.	.	40ddd\LLL	.	.
.	.	40eee-\	.	.
.	.	40fff#\	.	.
.	.	40ggg\	.	.
.	.	40cccc\JJJ	.	.
.	.	40fff#\LLL	2	.
.	.	40ggg\	1	.
.	.	40bbbn\	.	.
.	.	40cccc\	.	.
.	.	40eeee-\JJJ	.	.
.	.	40bbb\LLL	.	.
.	.	40cccc\	.	.
.	.	40eeee-\	.	.
.	.	40ffff#X\	.	.
.	.	40gggg\JJJ	.	.
.	.	40bbb\LLL	.	.
.	.	40cccc\	.	.
.	.	40eeee-\	.	.
.	.	40ffff#\	.	.
.	.	40gggg\JJJ	.	.
!!LO:LB:g=original
=-	=-	=-	=-	=-
*	*	*X8va	*	*
*	*	*8va	*	*
4rEEyy	.	40bbbn\LLL	.	.
.	.	40cccc\	.	.
.	.	40eeee-\	.	.
.	.	40ffff#X\	.	.
.	.	40gggg\JJJ	.	.
.	.	40bbb\LLL	.	.
.	.	40cccc\	.	.
.	.	40eeee-\	.	.
.	.	40ffff#\	.	.
.	.	40gggg\JJJ	.	.
2ryy	.	52bbb\LLLL	.	.
.	.	52cccc\	.	.
.	.	52gggg\	.	.
.	.	52ffff#X\	.	.
.	.	52ffffn\	.	.
.	.	52eeeen\	.	.
.	.	52eeee-X\	.	.
.	.	52dddd\	.	.
.	.	52cccc#X\	.	.
.	.	52ccccn\	.	.
.	.	52bbbn\	.	.
.	.	52bbb-X\	.	.
.	.	52aaan\	.	.
.	.	52aaa-X\	.	.
.	.	52ggg\	.	.
.	.	52fff#X\	.	.
.	.	52fffn\	.	.
*	*	*X8va	*	*
!	!	!LO:TX:a:t=loco.	!	!
.	.	52eeen\	.	.
.	.	52eee-X\	.	.
.	.	52ddd\	.	.
.	.	52ccc#X\	.	.
.	.	52cccn\	.	.
.	.	52bbn\	.	.
.	.	52bb-X\	.	.
.	.	52aan\	.	.
.	.	52aa-X\JJJJ	.	.
=-	=-	=-	=-	=-
*clefG2	*	*	*	*
2dd/ 2a-X/ 2f;/	.	42gg\LLLL	.	.
.	.	42aa-\	.	.
.	.	42ddd\	.	.
!	!	!LO:TX:t=P:problem=nuta niewyraźna, podpisana "cis"	!	!
.	.	42ccc#X\	.	.
!	!	!LO:TX:b:t=poco ritenuto._:dur=1qe:ext=u:problem=text with extention lines	!	!
.	.	42cccn\	.	.
.	.	42bbn\	.	.
.	.	42bb-X\	.	.
.	.	42aan\	.	.
.	.	42aa-X\	.	.
.	.	42gg\	.	.
.	.	42ff#X\	.	.
.	.	42ffn\	.	.
.	.	42een\	.	.
.	.	42ee-X\	.	.
.	.	42dd\	.	.
.	.	42cc#X\	.	.
.	.	42ccn\	.	.
.	.	42bn\	.	.
.	.	42b-X\	.	.
.	.	42an\	.	.
.	.	42a-X\JJJJ	.	.
*clefF4	*	*	*	*
=60||	=60||	=60||	=60||	=60||
8EE-\L	.	8ee-\L 8g\	.	.
8e-\ 8E-\	.	8ee-\ 8g\	.	.
8e-\ 8B-\	.	8.dd\ 8.g\	.	.
8e-\J 8G\	.	.	.	.
.	.	16cc\Jk 16g\	.	.
=61	=61	=61	=61	=61
8BB-\L	.	8bn\L 8a-\	.	.
8d\ 8F\	.	8cc\ 8a-\	.	.
8d\ 8c\	.	8.dd\ 8.a-\	.	.
8d\J 8A-\	.	.	.	.
.	.	16cc\Jk 16a-\	.	.
!!LO:LB:g=original
=62	=62	=62	=62	=62
8BB-\L	.	8bn\L 8a-\	.	.
8d\ 8F\	.	8cc\ 8a-\	.	.
8d\ 8c\	.	8.dd\ 8.a-\	.	.
8d\J 8A-\	.	.	.	.
.	.	16cc\Jk 16a-\	.	.
=63	=63	=63	=63	=63
8EE-\L	.	8an\L 8g\	.	.
8e-\ 8E-\	.	8b-\ 8g\	.	.
8e-\ 8B-\	.	8.ee-\ 8.cc\ 8.g\	.	.
8e-\J 8G\	.	.	.	.
.	.	16b-\Jk 16g\	.	.
=64	=64	=64	=64	=64
*rep	*	*	*	*
8EE-\L	.	8ee-\L 8g\	.	.
8e-\ 8E-\	.	8ee-\ 8g\	.	.
8e-\ 8B-\	.	8.dd\ 8.g\	.	.
8e-\J 8G\	.	.	.	.
.	.	16cc\Jk 16g\	.	.
*Xrep	*	*	*	*
=65	=65	=65	=65	=65
8BB-\L	.	8bn\L 8a-\	.	.
8d\ 8F\	.	8cc\ 8a-\	.	.
8d\ 8c\	.	8.dd\ 8.a-\	.	.
8d\J 8A-\	.	.	.	.
.	.	16cc\Jk 16a-\	.	.
=66	=66	=66	=66	=66
*rep	*	*	*	*
8BB-\L	.	8bn\L 8a-\	.	.
8d\ 8F\	.	8cc\ 8a-\	.	.
8d\ 8c\	.	8.ff\ 8.dd\ 8.a-\	.	.
8d\J 8A-\	.	.	.	.
.	.	16cc\Jk	.	.
*Xrep	*	*	*	*
=67	=67	=67	=67	=67
!LO:TX:t=P:problem=mixed beam	!	!	!	!
8EE-/L	.	8an\L 8g\	.	.
8e-\ 8E-\	.	8b-\ 8g\	.	.
8e-\ 8B-\	.	8.ee-\ 8.cc\ 8.g\	.	.
8e-\J 8G\	.	.	.	.
.	.	16b-\Jk	.	.
=68||	=68||	=68||	=68||	=68||
!LO:TX:t=P:problem=mixed beam	!	!	!	!
8DD/L	.	8gg\L 8b-\ 8g\	.	.
8d\ 8D\	.	8gg\ 8b-\	.	.
8d\ 8B-\	.	8.ff\ 8.an\	.	.
8d\J 8B-\ 8G\	.	.	.	.
.	.	16ee-\Jk 16g\	.	.
!!LO:LB:g=original
=69	=69	=69	=69	=69
!LO:TX:t=P:problem=mixed beam	!	!	!	!
8DD/L	.	8cc#X\L 8ccn\ 8f#X\	.	.
8d\ 8D\	.	8dd\ 8ccn\ 8f#\	.	.
.	.	16qff/	.	.
8.e-\ 8.c\	.	8.ee-\ 8.cc\ 8.f#\	.	.
16d\Jk	.	16dd\Jk 16cc\ 16f#\	.	.
=70	=70	=70	=70	=70
!LO:TX:t=P:problem=mixed beam	!	!	!	!
8DD/L	.	8cc#X\L 8ccn\ 8f#X\	.	.
8d\ 8D\	.	8dd\ 8ccn\ 8f#\	.	.
8.an\ 8.e-\ 8.c\	.	8.aan\ 8.ee-\ 8.cc\	.	.
16d\Jk	.	16dd\Jk	.	.
=71	=71	=71	=71	=71
8GG\L	.	8cc#X\L 8b-\ 8g\	.	.
8D\	.	8dd\ 8b-\ 8g\	.	.
8.g\ 8.e-\ 8.B-\	.	8.gg\ 8.ee-\ 8.b-\	.	.
16d\Jk	.	16dd\Jk	.	.
=72	=72	=72	=72	=72
!LO:TX:t=P:problem=mixed beam	!	!	!	!
8CC/L	.	8gg\L 8ee-\ 8g\	.	.
8e-\ 8G\	.	8gg\ 8ee-\	.	.
.	.	32qqff\LLL 32qqdd/	.	.
.	.	32qqgg/JJJ	.	.
8g\ 8c\	.	8ff\ 8dd\	.	.
8an\J 8e-\ 8G\	.	8ee-\J 8cc\	.	.
=73	=73	=73	=73	=73
8D\L	.	16dd\LL 16b-\	.	.
.	.	16ee-\	.	.
8g\J 8B-\	.	16dd\	.	.
.	.	16eee-\JJ	.	.
*clefG2	*	*	*	*
8b-\L 8d\	.	16ddd\LL	.	.
*	*	*8va	*	*
.	.	16eeee-\	.	.
8dd\J 8g\	.	16dddd\	.	.
.	.	16eeee-\JJ	.	.
*clefF4	*	*	*	*
=74	=74	=74	=74	=74
8D\	.	40dddd\LLL	.	.
.	.	40aaaan\	.	.
.	.	40gggg#X\	.	.
.	.	40ggggn\	.	.
.	.	40ffff#X\JJJ	.	.
*clefG2	*	*	*	*
8f#X/L 8c/	.	40ffffn\LLL	.	.
.	.	40eeeen\	.	.
.	.	40eeee-X\	.	.
.	.	40dddd\	.	.
.	.	40cccc#X\JJJ	.	.
8dd/ 8d/	.	40ccccn\LLL	.	.
.	.	40bbbn\	.	.
.	.	40bbb-X\	.	.
.	.	40aaa-\	.	.
.	.	40ggg#X\JJJ	.	.
8f#/J 8c/	.	40gggn\LLL	.	.
.	.	40fff#X\	.	.
.	.	40fffn\	.	.
.	.	40eeen\	.	.
!	!	!LO:TX:a:t=loco	!	!
.	.	40eee-X\JJJ	.	.
*	*	*X8va	*	*
!!LO:LB:g=original
=75	=75	=75	=75	=75
*clefF4	*	*	*	*
8GG\L	.	32ddd\LLL	.	.
.	.	32ggg\	.	.
.	.	32eee-\	.	.
.	.	32ddd\	.	.
8g\J 8d\ 8B-\	.	32bb-\	4	.
.	.	32gg\	3	.
.	.	32ff\	.	.
.	.	32ee-\JJJ	.	.
8BB-\L	.	32dd\LLL	.	.
.	.	32ccc\	.	.
.	.	32bb-\	.	.
.	.	32aa-\	.	.
8d\J 8A-\	.	32dd\	1	.
.	.	32b-\	3	.
.	.	32a-\	.	.
.	.	32d\JJJ	.	.
=76	=76	=76	=76	=76
8EE-\L	.	8ee-\L 8g\ 8e-\	.	.
8e-\ 8E-\	.	8ee-\ 8g\	.	.
8e-\ 8B-\	.	8.dd\ 8.g\	.	.
8e-\J 8G\	.	.	.	.
.	.	16cc\Jk 16g\	.	.
=77	=77	=77	=77	=77
8BB-\L	.	8bn\L 8a-\	.	.
8d\ 8F\	.	8cc\ 8a-\	.	.
8d\ 8c\	.	8.dd\ 8.a-\	.	.
8d\J 8A-\	.	.	.	.
.	.	16cc\Jk 16a-\	.	.
=78	=78	=78	=78	=78
*rep	*	*	*	*
8BB-\L	.	8bn\L 8a-\	.	.
8d\ 8F\	.	8cc\ 8a-\	.	.
8d\ 8c\	.	8.dd\ 8.a-\	.	.
8d\J 8A-\	.	.	.	.
.	.	16cc\Jk 16a-\	.	.
*Xrep	*	*	*	*
=79	=79	=79	=79	=79
8EE-\L	.	8an\L 8g\	.	.
8e-\ 8E-\	.	8b-\ 8g\	.	.
8e-\ 8B-\	.	8.ee-\ 8.cc\ 8.g\	.	.
8e-\J 8G\	.	.	.	.
.	.	16b-\Jk	.	.
=80!|:	=80!|:	=80!|:	=80!|:	=80!|:
*>G	*	*>G	*	*
*rep	*	*	*	*
8EE-\L	.	8ee-\L 8g\	.	.
8e-\ 8E-\	.	8ee-\ 8g\	.	.
8e-\ 8B-\	.	8.dd\ 8.g\	.	.
8e-\J 8G\	.	.	.	.
.	.	16dd-X\Jk 16g\	.	.
*Xrep	*	*	*	*
!!LO:PB:g=original
=81	=81	=81	=81	=81
8AA-\L	.	8bn\L 8a-\	.	.
8e-\ 8A-\	.	8cc\ 8a-\	.	.
.	.	16qqee-/	.	.
8e-\ 8c\	.	8.dd\ 8.a-\	.	.
8e-\J 8A-\	.	.	.	.
.	.	16cc\Jk 16a-\	.	.
=82	=82	=82	=82	=82
8FF\L	.	8ff\L 8an\	.	.
8f\ 8F\	.	8ff\ 8a\	.	.
8f\ 8c\	.	8.een\ 8.a\	.	.
8f\J 8An\	.	.	.	.
.	.	16ee-X\Jk 16a\	.	.
=83	=83	=83	=83	=83
8BB-\L	.	8cc#X\L 8b-\	.	.
8f\ 8B-\	.	8dd\ 8b-\	.	.
.	.	16qqff/	.	.
8f\ 8d\	.	8.ee-\ 8.b-\	.	.
8f\J 8B-\	.	.	.	.
.	.	16dd\Jk 16b-\	.	.
=84	=84	=84	=84	=84
8GG\L	.	8gg\L 8bn\	.	.
8g\ 8G\	.	8gg\ 8b\	.	.
8g\ 8d\	.	8.ff#X\ 8.b\	.	.
8g\J 8Bn\	.	.	.	.
.	.	16ffn\Jk 16b\	.	.
=85	=85	=85	=85	=85
8C\L	.	8dd\L 8cc\	.	.
8e-\ 8c\	.	8ee-\ 8cc\	.	.
8g-X\ 8e-\ 8c-X\ 8An\	.	8.gg-X\ 8.cc-X\	.	.
8C-X\J	.	.	.	.
.	.	16an\Jk 16e-\	.	.
=86	=86	=86	=86	=86
!	!	!LO:TX:t=P:problem=mixed beam	!	!
8BBB-/L	.	8b-\L 8d\	.	.
8e-\ 8E-\	.	8ee-\ 8g\	.	.
8e-\ 8B-\	.	8an\ 8f#X\	.	.
8e-\J 8G\	.	8b-\J 8g\	.	.
!!LO:LB:g=original
=87	=87	=87	=87	=87
!	!	!LO:TX:t=P:problem=mixed beam	!	!
8BB-\L	.	8cc-X\L 8a-\	.	.
8A-\	.	8d\J 8c-X\	.	.
8D\	.	8d/L 8B-/	.	.
8BB-\J	.	8d/J 8A-/	.	.
=88	=88	=88	=88	=88
8EE-\L	.	8e-/L 8G/	.	.
8e-\ 8E-\	.	8ee-/ 8g/	.	.
8e-\ 8B-\	.	8.dd/ 8.g/	.	.
8e-\J 8G\	.	.	.	.
.	.	16dd-X/Jk 16g/	.	.
=89	=89	=89	=89	=89
8AA-\L	.	8bn/L 8a-/	.	.
8e-\ 8A-\	.	8cc/ 8a-/	.	.
.	.	16qqee-\	.	.
8e-\ 8c\	.	8.dd/ 8.a-/	.	.
8e-\J 8A-\	.	.	.	.
.	.	16cc/Jk 16a-/	.	.
=90	=90	=90	=90	=90
8FF\L	.	8ff\L 8an\	.	.
8f\ 8F\	.	8ff\ 8a\	.	.
8f\ 8c\	.	8.een\ 8.a\	.	.
8f\J 8An\	.	.	.	.
.	.	16ee-X\Jk 16a\	.	.
=91	=91	=91	=91	=91
8BB-\L	.	8cc#X\L 8b-\	.	.
8f\ 8B-\	.	8dd\ 8b-\	.	.
.	.	16qqff/	.	.
8f\ 8d\	.	8.ee-\ 8.b-\	.	.
8f\J 8B-\	.	.	.	.
.	.	16dd\Jk 16b-\	.	.
=92	=92	=92	=92	=92
8GG\L	.	8gg\L 8bn\	.	.
8g\ 8G\	.	8gg\ 8b\	.	.
8g\ 8d\	.	8.ff#X\ 8.b\	.	.
8g\J 8Bn\	.	.	.	.
.	.	16ffn\Jk 16b\	.	.
!!LO:LB:g=original
=93	=93	=93	=93	=93
8C\L	.	8dd\L 8cc\	.	.
8e-\J 8c\	.	8ee-\ 8cc\	.	.
8g-X\L 8e-\ 8c-X\ 8An\	.	8.gg-X\ 8.cc-X\	.	.
8C-X\J	.	.	.	.
.	.	16an\Jk 16e-\	.	.
=94	=94	=94	=94	=94
!	!	!LO:TX:t=P:problem=mixed beam	!	!
8BBB-/L	.	8b-\L 8e-\	.	.
8e-\ 8E-\	.	8ee-\ 8g\	.	.
8e-\ 8B-\	.	8an\ 8f#X\	.	.
8e-\J 8G\	.	8b-\J 8g\	.	.
=95	=95	=95	=95	=95
!	!	!LO:TX:t=P:problem=mixed beam	!	!
8BB-\L	.	8cc-X\L 8a-\	.	.
8A-\	.	8d\J 8c-X\	.	.
8D\	.	8d/L 8B-/	.	.
8BB-\J	.	8d/J 8A-/	.	.
=96	=96	=96	=96	=96
!	!	!LO:TX:t=P:problem=mixed beam	!	!
8EE-\L	.	8e-/L 8G/	.	.
8G\ 8BB-\	.	8ee-/ 8g/	.	.
8e-\ 8G\	.	8an/ 8f#X/	.	.
8G\J 8BB-\	.	8b-/J 8g/	.	.
=97	=97	=97	=97	=97
8BB-\L	.	8cc-X\L 8a-\	.	.
8d\ 8A-\	.	8aa-\ 8dd\ 8cc-\	.	.
8a-\ 8d\	.	8dd\ 8b-\	.	.
8d\J 8A-\	.	8dd\J 8a-\	.	.
*clefF4	*	*	*	*
=98	=98	=98	=98	=98
!	!	!LO:TX:t=P:problem=mixed beam	!	!
8E-\L	.	8ee-\L 8g\	.	.
*clefG2	*	*	*	*
8g/ 8B-/	.	8eee-\ 8gg\	.	.
8ee-/ 8g/	.	8aan\ 8ff#X\	.	.
8g/J 8B-/	.	8bb-\J 8gg\	.	.
!!LO:LB:g=original
=99	=99	=99	=99	=99
*clefG2	*	*	*	*
8B-/L	.	8ccc-X\L 8aa-\	.	.
8a-/ 8d/	.	8aaa-\ 8ddd\ 8ccc-\	.	.
8dd/ 8a-/	.	8ddd\ 8bb-\	.	.
8a-/J 8d/	.	8ddd\J 8aa-\	.	.
=100	=100	=100	=100	=100
8e-/L	.	8eee-\L 8gg\	.	.
8ee-/ 8e-/	.	8eee-\ 8gg\	.	.
8dd/ 8g/ 8d/	.	8eee-\ 8ddd\ 8gg\	.	.
8dd-X/J 8g/ 8d-X/	.	8eee-\J 8ddd-X\ 8gg\	.	.
=101	=101	=101	=101	=101
8cc/L 8g/ 8c/	.	8eee-\L 8ccc\ 8gg\	.	.
8cc-X/ 8g/ 8c-X/	.	8eee-\ 8ccc-X\ 8gg\	.	.
8b-/ 8g/ 8B-/	.	8eee-\ 8bb-\ 8gg\	.	.
8dd/J 8a-/ 8B-/	.	8aaa-\J 8ddd\ 8aa-\	.	.
*clefF4	*	*	*	*
=102	=102	=102	=102	=102
8e-\L 8E-\	.	8eee-\L 8gg\	.	.
8e-\ 8E-\	.	8ee-\ 8g\	.	.
8d\ 8G\ 8D\	.	8ee-\ 8dd\ 8g\	.	.
8d-X\J 8G\ 8D-X\	.	8ee-\J 8dd-X\ 8g\	.	.
=103	=103	=103	=103	=103
8c\L 8G\ 8C\	.	8ee-\L 8cc\ 8g\	.	.
8c-X\ 8G\ 8C-X\	.	8ee-\ 8cc-X\ 8g\	.	.
8B-\ 8G\ 8BB-\	.	8ee-\ 8b-\ 8g\	.	.
8d\J 8A-\ 8BB-\	.	8bb-\J 8dd\ 8a-\	.	.
=104	=104	=104	=104	=104
8E-\L 8EE-\	.	8ee-\L 8g\	.	.
8d\ 8A-\ 8BB-\	.	8bb-\ 8dd\ 8a-\	.	.
8e-\ 8G\ 8E-\	.	8ee-\ 8g\	.	.
8d\J 8A-\ 8BB-\	.	8bb-\J 8dd\ 8a-\	.	.
=105	=105	=105	=105	=105
8E-\L 8EE-\	.	8ee-\L 8g\	.	.
8d\ 8A-\ 8BB-\	.	8bb-\ 8dd\ 8a-\	.	.
8e-\ 8G\ 8E-\	.	8ee-\ 8g\	.	.
8d\J 8A-\ 8BB-\	.	8bb-\J 8dd\ 8a-\	.	.
!!LO:LB:g=original
=106	=106	=106	=106	=106
16EE-\LL	.	16r	.	.
16BB-\	.	16G/LL	.	.
*	*	*X8va	*	*
16G\	.	16e-/	.	.
16B-\JJ	.	16b-/JJ	.	.
*clefG2	*	*	*	*
16g\LL	.	16ee-\LL	.	.
16b-\	.	16bb-\	.	.
16gg\	.	16eee-\	.	.
16bb-\JJ	.	16bbb-\JJ	.	.
=107	=107	=107	=107	=107
4ggg\	.	4eeee-\	.	.
*	*	*X8va	*	*
4r	.	4r	.	.
=108	=108	=108	=108	=108
*	*	*^	*	*
!LO:CL:ed	!	!	!	!	!
*clefF4	*	*	*	*	*
!LO:TX:t=P:problem=arpeggio z prawej strony	!	!LO:TX:t=P:problem=arpeggio z prawej strony	!LO:TX:a:i:t=ms.	!	!
4G/: 4EE-:/	.	4ee-\: 4b-\: 4e-:\	4bb-/:	.	.
4r	.	4r	4ryy	.	.
=109	=109	=109	=109	=109	=109
!LO:TX:t=P:problem=arpeggio z prawej strony	!	!LO:TX:t=P:problem=arpeggio z prawej strony	!LO:TX:a:i:t=ms.	!	!
4G\: 4BB-\: 4EE-:\	.	4b-\: 4e-\: 4B-:\	4ee-/:	.	.
!	!	!LO:TX:b:i:t=Fin.	!	!	!
4r	.	4r	4ryy	.	.
*	*	*v	*v	*	*
==	==	==	==	==
*-	*-	*-	*-	*-
!!!system-decoration: {(s1,s2)}
!!!RDF**kern: > = above
!!!RDF**kern: < = below
!!!EED: Andrzej Borzym
!!!EEV: 2021-05-23
!!!ENC: Mateusz Solarz
!!!END: 2021-05-06
!!!YEC: Copyright 2022 Narodowy Instytut Fryderyka Chopina (https://polishscores.org)
!!!YEM: License CC-BY-4.0 (https://creativecommons.org/licenses/by/4.0)
